X: 30602
T: One Of Two For Joy
R: jig
M: 6/8
K: Gmajor
|:F/E/|D2 G GFE|DAA A2 B|cAG F^EF|GFE D[B,F][CE]|
D2 G GFE|DAA A2 B|cAF DBA|G3 G2:|
|:B/c/|dBG GB/c/d|ecA A2 G|FAF Ddc|
[1 B/c/dB Aec|dBG GBd|ecA E2 G|F/G/AF DBA|G3 G2:|
[2 B/c/dB AA/B/c|dBG gdB|e2 c E2 G|FAe d2 F|G3- G2||

